resources/svg/wifi-off-line.svg

<svg fill="currentColor" viewBox="0 0 24 24" xmlns="http://www.w3.org/2000/svg"><path d="M12.0001 18.0002C12.7144 18.0002 13.3704 18.2498 13.8856 18.6666L12.0001 21.0002L10.1145 18.6666C10.6297 18.2498 11.2857 18.0002 12.0001 18.0002ZM2.80766 1.39355L20.4853 19.0712L19.0711 20.4854L13.8913 15.3043C13.2967 15.107 12.6609 15.0002 12.0001 15.0002C10.5719 15.0002 9.26024 15.4991 8.22998 16.3323L6.97363 14.7761C8.24961 13.7443 9.84925 13.097 11.5964 13.0102L9.00025 10.4142C7.55273 10.8235 6.22651 11.5218 5.0878 12.4428L3.83099 10.8869C4.89946 10.0228 6.10763 9.3245 7.41633 8.8313L5.13168 6.54522C3.98878 7.08925 2.92058 7.76484 1.94666 8.5524L0.689453 6.99686C1.60358 6.25759 2.59156 5.60601 3.64058 5.05491L1.39345 2.80777L2.80766 1.39355ZM14.5004 10.2856L12.2165 8.00255L12 8.00012C15.0947 8.00012 17.9369 9.08154 20.1693 10.887L18.9123 12.4428C17.6438 11.4169 16.1427 10.6673 14.5004 10.2856ZM12.0001 3.00016C16.2849 3.00016 20.22 4.49731 23.3109 6.99703L22.0534 8.5524C19.3061 6.33074 15.8085 5.00016 12.0001 5.00016C11.122 5.00016 10.2604 5.07089 9.42075 5.20697L7.72455 3.511C9.09498 3.17714 10.5268 3.00016 12.0001 3.00016Z"/></svg>

<svg xmlns="http://www.w3.org/2000/svg" viewBox="0 0 24 24" fill="currentColor">
    <g>
        <path fill="none" d="M0 0h24v24H0z"/>
        <path d="M12 18c.714 0 1.37.25 1.886.666L12 21l-1.886-2.334A2.987 2.987 0 0 1 12 18zM2.808 1.393l17.677 17.678-1.414 1.414-5.18-5.18A5.994 5.994 0 0 0 12 15c-1.428 0-2.74.499-3.77 1.332l-1.256-1.556a7.963 7.963 0 0 1 4.622-1.766L9 10.414a10.969 10.969 0 0 0-3.912 2.029L3.83 10.887A12.984 12.984 0 0 1 7.416 8.83L5.132 6.545a16.009 16.009 0 0 0-3.185 2.007L.689 6.997c.915-.74 1.903-1.391 2.952-1.942L1.393 2.808l1.415-1.415zM14.5 10.285l-2.284-2.283L12 8c3.095 0 5.937 1.081 8.17 2.887l-1.258 1.556a10.96 10.96 0 0 0-4.412-2.158zM12 3c4.285 0 8.22 1.497 11.31 3.997l-1.257 1.555A15.933 15.933 0 0 0 12 5c-.878 0-1.74.07-2.58.207L7.725 3.51C9.094 3.177 10.527 3 12 3z"/>
    </g>
</svg>
